src/assets/hub-administrador-proveedores.svg

<svg version="1.1" id="Layer_1" xmlns="http://www.w3.org/2000/svg" xmlns:xlink="http://www.w3.org/1999/xlink" x="0px" y="0px" viewBox="0 0 40 40" style="enable-background:new 0 0 40 40;" xml:space="preserve">
<g>
	<polygon style="fill:#DBB065;" points="1.5,35.5 1.5,4.5 11.793,4.5 14.793,7.5 35.5,7.5 35.5,35.5 	"></polygon>
	<g>
		<path style="fill:#967A44;" d="M11.586,5l2.707,2.707L14.586,8H15h20v27H2V5H11.586 M12,4H1v32h35V7H15L12,4L12,4z"></path>
	</g>
</g>
<g>
	<polygon style="fill:#F5CE85;" points="1.599,35.5 5.417,14.5 16.151,14.5 19.151,12.5 39.41,12.5 35.577,35.5 	"></polygon>
	<g>
		<path style="fill:#967A44;" d="M38.82,13l-3.667,22H2.198l3.636-20H16h0.303l0.252-0.168L19.303,13H38.82 M40,12H19l-3,2H5L1,36
			h35L40,12L40,12z"></path>
	</g>
</g>
</svg>

<?xml version="1.0" encoding="UTF-8" standalone="no"?>
<svg
   xmlns:dc="http://purl.org/dc/elements/1.1/"
   xmlns:cc="http://creativecommons.org/ns#"
   xmlns:rdf="http://www.w3.org/1999/02/22-rdf-syntax-ns#"
   xmlns:svg="http://www.w3.org/2000/svg"
   xmlns="http://www.w3.org/2000/svg"
   xmlns:sodipodi="http://sodipodi.sourceforge.net/DTD/sodipodi-0.dtd"
   xmlns:inkscape="http://www.inkscape.org/namespaces/inkscape"
   version="1.1"
   id="Layer_1"
   x="0px"
   y="0px"
   viewBox="0 0 40 40"
   style="enable-background:new 0 0 40 40;"
   xml:space="preserve"
   inkscape:version="0.91 r13725"
   sodipodi:docname="hub-administrador-proveedores.svg"><metadata
     id="metadata23"><rdf:RDF><cc:Work
         rdf:about=""><dc:format>image/svg+xml</dc:format><dc:type
           rdf:resource="http://purl.org/dc/dcmitype/StillImage" /></cc:Work></rdf:RDF></metadata><defs
     id="defs21" /><sodipodi:namedview
     pagecolor="#ffffff"
     bordercolor="#666666"
     borderopacity="1"
     objecttolerance="10"
     gridtolerance="10"
     guidetolerance="10"
     inkscape:pageopacity="0"
     inkscape:pageshadow="2"
     inkscape:window-width="1855"
     inkscape:window-height="1056"
     id="namedview19"
     showgrid="false"
     inkscape:zoom="21.534401"
     inkscape:cx="20.152379"
     inkscape:cy="19.823681"
     inkscape:window-x="65"
     inkscape:window-y="24"
     inkscape:window-maximized="1"
     inkscape:current-layer="Layer_1" /><ellipse
     style="opacity:0.96700003;fill:#00d1b2;fill-opacity:1;stroke:none;stroke-width:2.70000005;stroke-miterlimit:4;stroke-dasharray:none;stroke-opacity:0.90196078"
     id="path5981"
     cx="20.194925"
     cy="20.037006"
     rx="19.843729"
     ry="19.913246" /><g
     id="g4168"
     transform="matrix(0.67459525,0,0,0.67459525,7.8903352,6.2349663)"><g
       id="g3"><polygon
         id="polygon5"
         points="35.5,35.5 1.5,35.5 1.5,4.5 11.793,4.5 14.793,7.5 35.5,7.5 "
         style="fill:#a9a9a9" /><g
         id="g7"><path
           id="path9"
           d="M 11.586,5 14.293,7.707 14.586,8 15,8 35,8 35,35 2,35 2,5 11.586,5 M 12,4 1,4 1,36 36,36 36,7 15,7 12,4 12,4 Z"
           style="fill:#000000"
           inkscape:connector-curvature="0" /></g></g><g
       id="g11"><polygon
         id="polygon13"
         points="35.577,35.5 1.599,35.5 5.417,14.5 16.151,14.5 19.151,12.5 39.41,12.5 "
         style="fill:#dcdcdc;fill-opacity:1" /><g
         id="g15"><path
           id="path17"
           d="M 38.82,13 35.153,35 2.198,35 5.834,15 16,15 16.303,15 16.555,14.832 19.303,13 38.82,13 M 40,12 19,12 16,14 5,14 1,36 l 35,0 4,-24 0,0 z"
           style="fill:#000000"
           inkscape:connector-curvature="0" /></g></g></g></svg>
